app/images/icons/paypal.svg

<svg width="45" height="13" viewBox="0 0 45 13" fill="none" xmlns="http://www.w3.org/2000/svg">
<path d="M7.95735 1.95811C7.81202 1.66658 7.58214 1.42613 7.29678 1.24558C6.99908 1.06326 6.64766 0.935552 6.24604 0.859807C5.83737 0.785824 5.36528 0.752355 4.81834 0.74707L2.29321 0.748833C2.03075 0.752356 1.77357 0.956689 1.71192 1.21035L0.0129397 8.61044C-0.0487131 8.86058 0.115988 9.0702 0.378453 9.0702H1.58773C1.85019 9.0702 2.11002 8.86674 2.16815 8.61044L2.58298 6.81371C2.63847 6.56357 2.89741 6.35483 3.16252 6.35483H3.50865C4.98744 6.35307 6.13242 6.05097 6.95505 5.44589C7.78207 4.83993 8.18986 4.03933 8.18986 3.0476C8.18898 2.61339 8.11764 2.24876 7.95735 1.95811ZM5.34943 4.37578C4.98392 4.64353 4.47572 4.7774 3.82044 4.7774H3.52451C3.26116 4.7774 3.09998 4.56954 3.15723 4.31589L3.52098 2.74462C3.57207 2.49272 3.83718 2.28399 4.097 2.28575L4.49334 2.28311C4.95573 2.28311 5.30892 2.36325 5.54496 2.51827C5.77836 2.67152 5.8955 2.91549 5.89374 3.23872C5.90078 3.73019 5.71318 4.10803 5.34943 4.37578Z" fill="#ECEBEB"/>
<path d="M42.4302 1.32641L42.3545 1.34932L42.2532 1.36341L42.129 1.34403L42.0656 1.28238L42.0365 1.18549L42.0348 1.04017V0.50203H42.4391V0.335566H42.0348V0H41.8349V0.335566H41.6992V0.50203H41.8349V1.12825L41.9282 1.43827L42.203 1.53692L42.3184 1.52723L42.4408 1.50345V1.32641H42.4302Z" fill="#ECEBEB"/>
<path d="M44.3051 0.420658L44.0162 0.301758L43.8031 0.344915L43.5864 0.491119L43.4605 0.35108L43.2561 0.302638L43.0597 0.345795L42.8739 0.465577V0.335225H42.6775V1.51103H42.873V0.632921L43.0377 0.530753L43.2015 0.490238L43.3354 0.514019L43.4015 0.581837L43.4305 0.694574L43.4402 0.839897V1.51191H43.6366V0.759749L43.6331 0.697216L43.6296 0.639967L43.7969 0.533395L43.9625 0.492001L44.092 0.51578L44.1624 0.583599L44.1871 0.697216L44.2003 0.840779V1.5128H44.3976V0.749181L44.3051 0.420658Z" fill="#ECEBEB"/>
<path d="M13.7891 3.01565C13.3329 2.75847 12.6124 2.62988 11.6278 2.62988C11.1407 2.62988 10.6554 2.66775 10.1648 2.7435C9.80284 2.79899 9.76761 2.80956 9.54478 2.858C9.08502 2.9584 9.0128 3.41728 9.0128 3.41728L8.86484 4.02588C8.78116 4.41429 9.00488 4.39932 9.09824 4.36673C9.29905 4.30684 9.4109 4.24519 9.82134 4.15359C10.2133 4.06463 10.6263 3.99769 10.954 4.0021C11.4375 4.0021 11.8074 4.05318 12.054 4.15711C12.2971 4.2628 12.4187 4.44424 12.4187 4.7067L12.3975 4.87757L12.2232 4.98502C11.537 5.02818 11.0412 5.09159 10.4396 5.17878C9.85128 5.2607 9.33516 5.40426 8.90623 5.60067C8.4456 5.80324 8.10386 6.07539 7.86518 6.42153C7.63442 6.76943 7.51904 7.19131 7.51904 7.68629C7.51904 8.15221 7.68639 8.5371 8.01138 8.8348C8.33814 9.12721 8.76971 9.26989 9.28584 9.26989C9.6126 9.26813 9.86537 9.24259 10.045 9.19943L10.6307 8.99774L11.1266 8.72294L11.5828 8.42172L11.589 8.43053L11.5432 8.6243L11.5406 8.63222V8.63398C11.4912 8.87003 11.6339 9.06379 11.8638 9.08669L11.8682 9.09198H11.8893H12.8168H12.9912L13.007 9.08493C13.2484 9.05675 13.4747 8.86298 13.5276 8.63222L14.4092 4.81592L14.455 4.50501L14.4761 4.21348C14.4796 3.6727 14.2462 3.27195 13.7891 3.01565ZM11.8391 7.30669L11.6507 7.55506L11.1751 7.80079C10.9513 7.89151 10.7391 7.93731 10.5427 7.93731C10.245 7.93731 10.0116 7.89415 9.85392 7.80607L9.62052 7.35249C9.62052 7.10676 9.67689 6.91211 9.79755 6.76238L10.3102 6.4136C10.5295 6.33962 10.7972 6.27709 11.1072 6.23393C11.3838 6.19958 11.9299 6.13705 12.0012 6.13528L12.0849 6.28237C12.0681 6.36604 11.9131 7.01428 11.8391 7.30669Z" fill="#ECEBEB"/>
<path d="M35.7532 3.02093C35.2944 2.76375 34.5748 2.63428 33.5928 2.63428C33.1057 2.63428 32.6195 2.67215 32.1307 2.75054C31.7678 2.80338 31.7317 2.81483 31.508 2.86239C31.0491 2.96192 30.9778 3.42255 30.9778 3.42255L30.8298 4.03027C30.747 4.41869 30.9655 4.40107 31.0676 4.37112C31.2693 4.31123 31.3777 4.25222 31.7846 4.1571C32.1747 4.06903 32.5913 4.00385 32.9199 4.00561C33.4016 4.00561 33.7715 4.05758 34.0173 4.16151C34.2621 4.2672 34.3819 4.45039 34.3819 4.71021L34.3634 4.8802L34.1908 4.9903C33.4976 5.03169 33.0009 5.0951 32.4055 5.1823C31.8189 5.26421 31.301 5.40689 30.8712 5.60418C30.4124 5.80763 30.0662 6.07979 29.8302 6.4268C29.5968 6.7747 29.4832 7.1957 29.4832 7.68628C29.4832 8.15572 29.6487 8.54061 29.9781 8.83655C30.3067 9.12808 30.7338 9.27428 31.2499 9.27428C31.5749 9.27076 31.8277 9.24962 32.0083 9.20294L32.5922 9.00389L33.0925 8.7291L33.5452 8.42435L33.5531 8.43404L33.5117 8.62957L33.5073 8.63309L33.5091 8.63662C33.4545 8.87266 33.598 9.06819 33.8306 9.08932L33.8323 9.09373H33.8535C34.0058 9.09373 34.5325 9.09373 34.7835 9.09373H34.9544L34.9729 9.08756C35.2116 9.0585 35.4371 8.86473 35.4873 8.63133L36.3715 4.82031L36.4182 4.50764L36.4438 4.21523C36.4446 3.67621 36.2139 3.27723 35.7532 3.02093ZM33.8077 7.31196L33.6113 7.56298L33.14 7.80695C32.9163 7.89678 32.7032 7.94346 32.5103 7.94346C32.2029 7.94346 31.9757 7.89942 31.8224 7.81135L31.5864 7.35952C31.5864 7.11291 31.6436 6.92003 31.759 6.76766C31.8762 6.62409 32.055 6.50607 32.2769 6.41976C32.4936 6.34577 32.7613 6.28588 33.0731 6.24096C33.3479 6.20661 33.8922 6.14232 33.9627 6.14144L34.0481 6.28853C34.0358 6.3722 33.8799 7.01779 33.8077 7.31196Z" fill="#ECEBEB"/>
<path d="M29.9182 1.98536C29.7667 1.69206 29.5395 1.45514 29.2524 1.27018C28.9582 1.08699 28.6094 0.958395 28.2016 0.884412C27.8009 0.813071 27.3226 0.774318 26.7792 0.773438L24.2506 0.775198C23.9872 0.779602 23.7344 0.983938 23.6737 1.23495L21.9729 8.63857C21.9113 8.88959 22.0804 9.09745 22.3376 9.09745L23.5486 9.09569C23.8058 9.09745 24.0691 8.89135 24.1299 8.63769L24.5394 6.84007C24.5993 6.58994 24.8592 6.37944 25.1207 6.3812H25.4669C26.9474 6.3812 28.095 6.07646 28.9212 5.47314C29.7377 4.86278 30.1507 4.06394 30.1507 3.07133C30.1463 2.63887 30.0715 2.27336 29.9182 1.98536ZM27.3103 4.40655C26.9457 4.66901 26.4366 4.80289 25.7848 4.80289H25.4836C25.2238 4.80553 25.0556 4.59415 25.1137 4.34225L25.4801 2.77363C25.5338 2.52262 25.7963 2.31212 26.0579 2.31476L26.4498 2.31212C26.9148 2.31476 27.2636 2.39138 27.5014 2.54639C27.7383 2.70141 27.8502 2.9445 27.8528 3.26685C27.8555 3.75831 27.6732 4.13704 27.3103 4.40655Z" fill="#ECEBEB"/>
<path d="M40.2877 1.29387C40.3432 1.04109 40.1846 0.835877 39.9248 0.8394H38.8415C38.6195 0.8394 38.4196 1.0041 38.3218 1.20667L38.2619 1.30004L38.2073 1.5396L36.6933 8.42182L36.644 8.6332L36.6458 8.63848C36.5956 8.86483 36.7347 9.0357 36.9496 9.06829L36.9681 9.09383H38.0928C38.313 9.09383 38.52 8.92649 38.6142 8.72039L38.6724 8.63231L40.2912 1.29475L40.2877 1.29387Z" fill="#ECEBEB"/>
<path d="M22.0065 2.72276C21.7203 2.72628 20.5568 2.72276 20.5568 2.72276C20.2961 2.72276 19.9614 2.93326 19.7958 3.18427C19.7958 3.18427 18.0643 6.15594 17.8961 6.45451L17.6952 6.45187L17.1562 3.20453C17.0963 2.94911 16.8295 2.73068 16.4974 2.73068L15.4141 2.73244C15.1534 2.73244 14.9931 2.9403 15.0521 3.19396C15.0521 3.19396 15.8747 7.87517 16.0394 8.97699C16.1161 9.58472 16.0297 9.69305 16.0297 9.69305L14.9587 11.5585C14.8002 11.8121 14.8856 12.0191 15.1455 12.0191L16.3979 12.0174C16.6586 12.0174 17.0012 11.8121 17.1562 11.5576L21.9739 3.40886C21.9739 3.40974 22.4372 2.71307 22.0065 2.72276Z" fill="#ECEBEB"/>
</svg>

<svg width="45" height="13" fill="none" xmlns="http://www.w3.org/2000/svg"><path d="M7.96 1.96a1.8 1.8 0 0 0-.66-.71A3.1 3.1 0 0 0 6.25.86 8.59 8.59 0 0 0 4.82.75H2.29a.63.63 0 0 0-.58.46l-1.7 7.4c-.06.25.1.46.37.46h1.2a.62.62 0 0 0 .59-.46l.41-1.8a.62.62 0 0 1 .58-.45h.35c1.48 0 2.62-.3 3.45-.91.82-.6 1.23-1.41 1.23-2.4 0-.44-.07-.8-.23-1.1ZM5.35 4.38c-.36.26-.87.4-1.53.4h-.3c-.26 0-.42-.21-.36-.46l.36-1.58a.61.61 0 0 1 .58-.46h.4c.46 0 .81.08 1.05.24.23.15.35.4.34.72.01.49-.18.87-.54 1.14Zm37.08-3.05-.07.02-.1.01-.13-.02-.06-.06-.03-.1V.5h.4V.34h-.4V0h-.2v.34h-.14V.5h.13v.63l.1.3.27.1h.12l.12-.03v-.17Zm1.88-.91L44 .3l-.2.04-.22.15-.13-.14-.2-.05-.2.05-.19.12V.34h-.2V1.5h.2V.63l.17-.1.16-.04.13.02.07.07.03.12.01.14v.67h.2V.7l-.01-.06.17-.1.16-.05.13.03.07.06.03.12.01.14v.67h.2V.75l-.1-.33Zm-30.52 2.6a4.59 4.59 0 0 0-2.16-.39c-.49 0-.98.04-1.47.11l-.62.12c-.45.1-.53.56-.53.56l-.14.6c-.09.4.14.38.23.35.2-.06.31-.12.72-.22.4-.09.8-.15 1.13-.15.49 0 .86.05 1.1.16.25.1.37.28.37.55l-.02.17-.18.1c-.68.05-1.18.11-1.78.2a5.53 5.53 0 0 0-1.53.42c-.46.2-.8.47-1.04.82s-.35.77-.35 1.27c0 .46.17.85.5 1.14.32.3.75.44 1.27.44.32 0 .58-.03.76-.07l.58-.2.5-.28.45-.3v.01l-.04.2c-.05.24.1.43.32.46h1.15a.63.63 0 0 0 .52-.46l.88-3.81.04-.32.03-.29c0-.54-.23-.94-.7-1.2ZM11.84 7.3l-.19.25-.47.24a1.7 1.7 0 0 1-1.33 0l-.23-.45a.9.9 0 0 1 .18-.59l.51-.35c.22-.07.49-.13.8-.18l.9-.1.08.15-.25 1.03Zm23.91-4.29a4.61 4.61 0 0 0-2.16-.39c-.48 0-.97.04-1.46.12-.36.05-.4.07-.62.11-.46.1-.53.56-.53.56l-.15.61c-.08.39.14.37.24.34.2-.06.3-.12.71-.21.4-.1.81-.16 1.14-.15.48 0 .85.05 1.1.15a.55.55 0 0 1 .36.55l-.02.17-.17.11c-.7.04-1.19.1-1.78.2a5.53 5.53 0 0 0-1.54.41c-.46.2-.8.48-1.04.83a2.2 2.2 0 0 0-.35 1.26c0 .47.17.85.5 1.15.33.29.75.43 1.27.43.33 0 .58-.02.76-.07l.58-.2.5-.27.46-.3-.04.2c-.05.24.09.44.32.46H34.97a.62.62 0 0 0 .52-.46l.88-3.8.05-.32.02-.3c0-.53-.23-.93-.69-1.19Zm-1.94 4.3-.2.24-.47.25a1.71 1.71 0 0 1-1.32 0l-.23-.45c0-.25.05-.44.17-.6a1.24 1.24 0 0 1 .52-.34c.21-.07.48-.13.8-.18l.88-.1.09.15-.24 1.02Zm-3.9-5.33a1.87 1.87 0 0 0-.66-.72A2.97 2.97 0 0 0 28.2.88c-.4-.07-.88-.1-1.42-.1h-2.53a.63.63 0 0 0-.58.46l-1.7 7.4c-.06.25.11.46.37.46h1.2a.63.63 0 0 0 .59-.46l.41-1.8a.63.63 0 0 1 .58-.46h.35c1.48 0 2.63-.3 3.45-.9a2.86 2.86 0 0 0 1-3.5Zm-2.6 2.42c-.36.26-.87.4-1.52.4h-.3a.36.36 0 0 1-.38-.47l.37-1.57a.61.61 0 0 1 .58-.46h.39c.47 0 .81.08 1.05.24.24.15.35.4.35.72 0 .49-.18.87-.54 1.14Zm12.98-3.12c.05-.25-.1-.45-.37-.45h-1.08c-.22 0-.42.16-.52.37l-.06.09-.05.24-1.52 6.88-.05.21c-.04.23.1.4.31.44l.02.02h1.12c.22 0 .43-.16.52-.37l.06-.09L40.3 1.3ZM22 2.72h-1.45c-.26 0-.6.21-.76.46l-1.9 3.27h-.2l-.54-3.25c-.06-.25-.33-.47-.66-.47H15.4c-.26 0-.42.21-.36.46 0 0 .83 4.69.99 5.79.08.6-.01.71-.01.71l-1.07 1.87c-.16.25-.07.46.19.46h1.25c.26 0 .6-.2.76-.46l4.81-8.15s.47-.7.04-.69Z" fill="#ECEBEB"/></svg>
